X: 20
T:Father Brian MacDermott Roe
M:3/4
L:1/8
C:Carolan
R:waltz
K:GMaj
g3/2e/2|d2cB AG|AG E2G/2E/2D|E2G2G2|G4Bc| d2cB AG|G4fg|a2gf ed|efg2||
|gf|ed Bd ef|g2g2fg|a2gf ed|efg2ge| d2cB AG|AG E2G/2E/2D|E2G2G2|G4|]

